X: 10921
T: Drowsy Mimine
R: reel
M: 4/4
K: Dmajor
"D"dBAG FDA,D|"D"FAAD FDFA|"D"dBAG FDA,D|"D"FFDF "A"EA,CE|
"D"FBAG FDA,D|"D"FAAF "G"GBAG|"D/F#"EFGA "G"AB~B2|"G"AB {c}BA "A"cAcA:|
"Bm"dfed "G"B2A2|"G"AFAB AGFE|"G"effe cA"A"B2-|BABc Bc/B/A2|
"Bm"dfed "G"B2A2|"G"AFAB AGFE|"Em"effe cA"/F#"Bc|"G"dafd "A"cABc:|

